X: 34085
T: Reel De St-Marc
R: reel
M: 4/4
K: Aminor
AB|:(3cdc Ac BABc|defg fedB|(3cdc Ac BAEG|ABcd edcB|
(3cdc Ac BABc|defg fedB|cBAc BAEG|1 Aaec A2AB:|2 Aaec AGAB||
|:c2ec fcec|dedc Bcde|d2gd bdgd|ag^fg eGAB|
c2ec fcec|dedc Bcde|fedc BAGF|1 EGAB c2AB:|2 EGAB c2||

